X: 15700
T: Golden Gate
R: waltz
M: 3/4
K: Gmajor
D GA|:B3A AG|A4 BA|G2gf ed|e3G GA|
B3A AG|A4 BA|G3B AG|1 E3D GA:|2 E4 EF||
G2gf ed|e4ed|dB BA AG|A3B AG|
G2gf ed|e4 ga|b2ba ag|a4ba|
g3b ag|e4 ge|d3B BG|A3G AB|
c3B BA|BA GB AG|E6|E3||

